dist/img/sprites/hDocs.svg

<svg width="32" height="32" viewBox="0 0 32 32" fill="none" xmlns="http://www.w3.org/2000/svg">
<g clip-path="url(#clip0_730_5325)">
<path d="M29.5392 32H2.45922C1.34922 32 0.449219 31.1 0.449219 29.99V14.51C0.449219 13.4 1.34922 12.5 2.45922 12.5H29.5392C30.6492 12.5 31.5492 13.4 31.5492 14.51V29.99C31.5492 31.1 30.6492 32 29.5392 32ZM2.45922 13.94C2.14922 13.94 1.88922 14.2 1.88922 14.51V29.99C1.88922 30.3 2.14922 30.56 2.45922 30.56H29.5392C29.8492 30.56 30.1092 30.3 30.1092 29.99V14.51C30.1092 14.2 29.8492 13.94 29.5392 13.94H2.45922Z" fill="#4B8125" stroke="#4B8125" stroke-width="0.25" stroke-miterlimit="10"/>
<path d="M29.5392 32H2.45922C1.34922 32 0.449219 31.05 0.449219 29.89V4.7C0.449219 3.64 1.26922 2.78 2.27922 2.78H3.02922V1.92C3.02922 0.86 3.84922 0 4.85922 0H10.3092C10.8492 0 11.3692 0.23 11.7492 0.64L13.5692 2.6C13.6792 2.71 13.8092 2.78 13.9492 2.78H29.5392C30.6492 2.78 31.5492 3.73 31.5492 4.89V29.89C31.5492 31.05 30.6492 32 29.5392 32ZM2.27922 4.22C2.06922 4.22 1.88922 4.44 1.88922 4.7V29.89C1.88922 30.26 2.14922 30.56 2.45922 30.56H29.5392C29.8492 30.56 30.1092 30.26 30.1092 29.89V4.89C30.1092 4.52 29.8492 4.22 29.5392 4.22H13.9592C13.4192 4.22 12.8992 3.99 12.5192 3.58L10.6892 1.61C10.5792 1.5 10.4492 1.43 10.2992 1.43H4.85922C4.63922 1.43 4.46922 1.64 4.46922 1.91V4.21H2.27922V4.22Z" fill="#4B8125" stroke="#4B8125" stroke-width="0.25" stroke-miterlimit="10"/>
<path d="M26.4602 13.9399H5.54023C4.68023 13.9399 3.99023 13.2099 3.99023 12.3199V8.55994C3.99023 7.66994 4.69023 6.93994 5.54023 6.93994H26.4602C27.3202 6.93994 28.0202 7.66994 28.0202 8.55994V12.3199C28.0202 13.2099 27.3202 13.9399 26.4602 13.9399ZM5.54023 8.38994C5.54023 8.38994 5.42023 8.45994 5.42023 8.56994V12.3299C5.42023 12.4399 5.49023 12.5099 5.54023 12.5099H26.4602C26.4602 12.5099 26.5802 12.4399 26.5802 12.3299V8.56994C26.5802 8.45994 26.5102 8.38994 26.4602 8.38994H5.54023Z" fill="#4B8125" stroke="#4B8125" stroke-width="0.25" stroke-miterlimit="10"/>
</g>
<defs>
<clipPath id="clip0_730_5325">
<rect width="32" height="32" fill="white"/>
</clipPath>
</defs>
</svg>

<svg width="32" height="32" viewBox="0 0 32 32" fill="none" xmlns="http://www.w3.org/2000/svg"><g clip-path="url(#clip0_730_5325)" fill="#4B8125" stroke="#4B8125" stroke-width=".25" stroke-miterlimit="10"><path d="M29.54 32H2.46c-1.11 0-2.01-.9-2.01-2.01V14.51c0-1.11.9-2.01 2.01-2.01h27.08c1.11 0 2.01.9 2.01 2.01v15.48c0 1.11-.9 2.01-2.01 2.01zM2.46 13.94c-.31 0-.57.26-.57.57v15.48c0 .31.26.57.57.57h27.08c.31 0 .57-.26.57-.57V14.51c0-.31-.26-.57-.57-.57H2.46z"/><path d="M29.54 32H2.46c-1.11 0-2.01-.95-2.01-2.11V4.7c0-1.06.82-1.92 1.83-1.92h.75v-.86C3.03.86 3.85 0 4.86 0h5.45c.54 0 1.06.23 1.44.64l1.82 1.96c.11.11.24.18.38.18h15.59c1.11 0 2.01.95 2.01 2.11v25c0 1.16-.9 2.11-2.01 2.11zM2.28 4.22c-.21 0-.39.22-.39.48v25.19c0 .37.26.67.57.67h27.08c.31 0 .57-.3.57-.67v-25c0-.37-.26-.67-.57-.67H13.96c-.54 0-1.06-.23-1.44-.64l-1.83-1.97a.549.549 0 00-.39-.18H4.86c-.22 0-.39.21-.39.48v2.3H2.28v.01z"/><path d="M26.46 13.94H5.54c-.86 0-1.55-.73-1.55-1.62V8.56c0-.89.7-1.62 1.55-1.62h20.92c.86 0 1.56.73 1.56 1.62v3.76c0 .89-.7 1.62-1.56 1.62zM5.54 8.39s-.12.07-.12.18v3.76c0 .11.07.18.12.18h20.92s.12-.07.12-.18V8.57c0-.11-.07-.18-.12-.18H5.54z"/></g><defs><clipPath id="clip0_730_5325"><path fill="#fff" d="M0 0h32v32H0z"/></clipPath></defs></svg>
